icons/SpeechBoxes.svg

<svg width="24" height="24" viewBox="0 0 24 24" fill="none" xmlns="http://www.w3.org/2000/svg">
<path fill-rule="evenodd" clip-rule="evenodd" d="M7.75,7.25h7.75c1.2426,0 2.25,1.00736 2.25,2.25v3.75h1.75c0.4142,0 0.75,-0.3358 0.75,-0.75v-7c0,-0.41421 -0.3358,-0.75 -0.75,-0.75h-11c-0.41421,0 -0.75,0.33579 -0.75,0.75zM6.25,7.25v-1.75c0,-1.24264 1.00736,-2.25 2.25,-2.25h11c1.2426,0 2.25,1.00736 2.25,2.25v7c0,1.2426 -1.0074,2.25 -2.25,2.25h-1.75v1.75c0,1.2426 -1.0074,2.25 -2.25,2.25h-5.25l-3,2.25c-0.82405,0.618 -2,0.0301 -2,-1v-1.25h-0.75c-1.24264,0 -2.25,-1.0074 -2.25,-2.25v-7c0,-1.24264 1.00736,-2.25 2.25,-2.25zM6.25,8.75h-1.75c-0.41421,0 -0.75,0.33579 -0.75,0.75v7c0,0.4142 0.33579,0.75 0.75,0.75h1.5c0.41421,0 0.75,0.3358 0.75,0.75v1.5l2.8,-2.1c0.12982,-0.0974 0.28772,-0.15 0.45,-0.15h5.5c0.4142,0 0.75,-0.3358 0.75,-0.75v-1.75v-0.75v-4.5c0,-0.41421 -0.3358,-0.75 -0.75,-0.75h-8.5z" fill="#002B51"/>
</svg>

<svg width="24" height="24" viewBox="0 0 24 24" fill="none" xmlns="http://www.w3.org/2000/svg">
<path fill-rule="evenodd" clip-rule="evenodd" d="M7.75 5.5C7.75 5.08579 8.08579 4.75 8.5 4.75H19.5C19.9142 4.75 20.25 5.08579 20.25 5.5V12.5C20.25 12.9142 19.9142 13.25 19.5 13.25H17.75V9.5C17.75 8.25736 16.7426 7.25 15.5 7.25H7.75V5.5ZM6.25 7.25V5.5C6.25 4.25736 7.25736 3.25 8.5 3.25H19.5C20.7426 3.25 21.75 4.25736 21.75 5.5V12.5C21.75 13.7426 20.7426 14.75 19.5 14.75H17.75V16.5C17.75 17.7426 16.7426 18.75 15.5 18.75H10.25L7.25 21C6.42595 21.618 5.25 21.0301 5.25 20V18.75H4.5C3.25736 18.75 2.25 17.7426 2.25 16.5V9.5C2.25 8.25736 3.25736 7.25 4.5 7.25H6.25ZM6.25 8.75H4.5C4.08579 8.75 3.75 9.08579 3.75 9.5V16.5C3.75 16.9142 4.08579 17.25 4.5 17.25H6C6.41421 17.25 6.75 17.5858 6.75 18V19.5L9.55 17.4C9.67982 17.3026 9.83772 17.25 10 17.25H15.5C15.9142 17.25 16.25 16.9142 16.25 16.5V14.75V14V9.5C16.25 9.08579 15.9142 8.75 15.5 8.75H7H6.25Z" fill="#002B51"/>
</svg>
